X:14373
T:Robert The Minnow
R:Reel
S:
H:
N:
D:Martin Donohoe: Free Spirit
Z:Adrian Scahill
M:4/4
L:1/8
K:G
B2GA (3BdB GA|Bd (3ddd eBdc|B2GA B2GB|A2FA DAFA|\
B2GA (3BdB GA|Bd (3ddd edBd|g3b agef|1 gage dBcA:|2 gage dega||\
beed edBd|bee2 gfga|beed edBd|gabg a2ga|\
beed edBd|bee2 gfga|bgaf gfed|efge dega:||
